home/.icons/Gruvbox-Plus-Dark/emotes/symbolic/face-wink-symbolic.svg

<svg width="16" height="16" version="1.1" xmlns="http://www.w3.org/2000/svg">
  <defs>
    <style type="text/css" id="current-color-scheme">.ColorScheme-Text { color:#ebdbb2; } .ColorScheme-Highlight { color:#458588; }</style>
  </defs>
  <path class="ColorScheme-Text" fill="currentColor" d="m8 1c-3.87 0-7 3.13-7 7 0 3.86 3.13 7 7 7s7-3.14 7-7c0-3.87-3.13-7-7-7zm-3 4c0.55 0 1 0.45 1 1s-0.45 1-1 1-1-0.45-1-1 0.45-1 1-1zm4.5 1h3c0.28 0 0.5 0.22 0.5 0.5 0 0.27-0.22 0.5-0.5 0.5h-3c-0.28 0-0.5-0.23-0.5-0.5 0-0.28 0.22-0.5 0.5-0.5zm-4.33 3.83c0.75 0.75 1.77 1.17 2.83 1.17s2.08-0.42 2.83-1.17l0.7 0.7c-0.93 0.94-2.2 1.47-3.53 1.47s-2.6-0.53-3.53-1.47z"/>
</svg>

<svg xmlns="http://www.w3.org/2000/svg" width="16" height="16" version="1.1">
 <path style="fill:#ebdbb2" d="M 8,1 C 4.13,1 1,4.13 1,8 1,11.86 4.13,15 8,15 11.87,15 15,11.86 15,8 15,4.13 11.87,1 8,1 Z M 5,5 C 5.55,5 6,5.45 6,6 6,6.55 5.55,7 5,7 4.45,7 4,6.55 4,6 4,5.45 4.45,5 5,5 Z M 9.5,6 H 12.5 C 12.78,6 13,6.22 13,6.5 13,6.77 12.78,7 12.5,7 H 9.5 C 9.22,7 9,6.77 9,6.5 9,6.22 9.22,6 9.5,6 Z M 5.17,9.83 C 5.92,10.58 6.94,11 8,11 9.06,11 10.08,10.58 10.83,9.83 L 11.53,10.53 C 10.6,11.47 9.33,12 8,12 6.67,12 5.4,11.47 4.47,10.53 Z"/>
</svg>
